static/assets/images/icons/btr-markets.svg

<svg width="256" height="256" viewBox="0 0 256 256" fill="none" xmlns="http://www.w3.org/2000/svg">
<path d="M18.4188 159.111H28.1887L33.1294 178.86H33.5119L45.1465 159.111H54.9164L49.4975 191.009H41.8155L45.1465 171.415H44.8756L33.751 190.806H28.8581L24.3318 171.306H24.0608L20.682 191.009H13L18.4188 159.111Z" fill="black"/>
<path d="M61.4788 191.009H52.9999L69.4317 159.111H79.9347L85.5289 191.009H77.05L73.464 167.148H73.209L61.4788 191.009ZM62.4988 178.455H80.2216L79.2016 184.311H61.4788L62.4988 178.455Z" fill="black"/>
<path d="M89.0432 191.009L94.462 159.111H107.945C110.389 159.111 112.429 159.542 114.065 160.404C115.702 161.256 116.865 162.481 117.556 164.08C118.246 165.668 118.406 167.553 118.034 169.733C117.673 171.935 116.865 173.809 115.611 175.356C114.368 176.893 112.764 178.066 110.798 178.876C108.843 179.686 106.623 180.091 104.136 180.091H95.6095L96.6614 174.016H103.722C104.901 174.016 105.921 173.866 106.782 173.565C107.643 173.253 108.328 172.786 108.838 172.163C109.359 171.53 109.704 170.72 109.874 169.733C110.033 168.747 109.959 167.932 109.651 167.288C109.353 166.634 108.827 166.146 108.073 165.824C107.329 165.492 106.373 165.326 105.204 165.326H101.315L96.9324 191.009H89.0432ZM109.89 176.431L115.548 191.009H106.941L101.459 176.431H109.89Z" fill="black"/>
<path d="M119.11 191.009L124.529 159.111H132.418L130.139 172.599H130.569L143.638 159.111H152.93L138.984 173.347L147.718 191.009H138.283L132.354 178.471L128.465 182.411L126.999 191.009H119.11Z" fill="black"/>
<path d="M150.623 191.009L156.042 159.111H178.801L177.717 165.372H162.847L161.763 171.914H175.47L174.386 178.191H160.68L159.596 184.747H174.466L173.382 191.009H150.623Z" fill="black"/>
<path d="M181.59 165.372L182.674 159.111H210.262L209.178 165.372H199.281L194.946 191.009H187.168L191.503 165.372H181.59Z" fill="black"/>
<path d="M230.101 168.737C230.186 167.563 229.867 166.655 229.144 166.011C228.432 165.367 227.306 165.045 225.765 165.045C224.745 165.045 223.874 165.175 223.152 165.435C222.429 165.684 221.861 166.037 221.446 166.494C221.032 166.94 220.772 167.459 220.665 168.051C220.57 168.519 220.596 168.934 220.745 169.297C220.894 169.661 221.154 169.983 221.526 170.263C221.908 170.543 222.381 170.787 222.944 170.995C223.518 171.203 224.161 171.384 224.873 171.54L227.55 172.163C229.102 172.506 230.446 172.963 231.583 173.534C232.73 174.094 233.66 174.774 234.372 175.574C235.084 176.363 235.573 177.272 235.838 178.3C236.104 179.327 236.125 180.48 235.902 181.757C235.562 183.771 234.749 185.5 233.463 186.944C232.188 188.387 230.52 189.493 228.459 190.261C226.408 191.029 224.023 191.414 221.303 191.414C218.583 191.414 216.272 191.014 214.37 190.214C212.479 189.404 211.108 188.184 210.258 186.554C209.408 184.924 209.18 182.868 209.573 180.387H217.111C216.994 181.414 217.127 182.271 217.51 182.956C217.903 183.642 218.508 184.161 219.327 184.514C220.145 184.867 221.133 185.043 222.291 185.043C223.354 185.043 224.283 184.903 225.08 184.623C225.888 184.343 226.53 183.953 227.009 183.455C227.497 182.956 227.795 182.385 227.901 181.742C228.007 181.15 227.906 180.636 227.598 180.2C227.301 179.764 226.791 179.385 226.068 179.063C225.356 178.741 224.421 178.45 223.263 178.191L219.996 177.412C217.297 176.768 215.252 175.74 213.86 174.328C212.479 172.916 211.99 171 212.394 168.581C212.734 166.598 213.573 164.864 214.912 163.379C216.261 161.894 217.967 160.742 220.028 159.921C222.1 159.091 224.379 158.675 226.865 158.675C229.394 158.675 231.519 159.096 233.24 159.937C234.972 160.768 236.221 161.941 236.986 163.457C237.761 164.962 237.984 166.722 237.655 168.737H230.101Z" fill="black"/>
<path d="M19.1367 151.488L32.5027 71H67.4115C73.5441 71 78.5629 71.8253 82.4679 73.4759C86.399 75.1266 89.177 77.4585 90.8019 80.4715C92.453 83.4846 92.9379 87.0348 92.2565 91.1221C91.7323 94.0566 90.6054 96.7421 88.8757 99.1788C87.1722 101.589 85.01 103.633 82.3892 105.31C79.7947 106.96 76.8987 108.1 73.7014 108.729L73.5441 109.515C77.0035 109.62 80.0174 110.484 82.5858 112.109C85.1542 113.707 87.0411 115.934 88.2467 118.79C89.4522 121.62 89.7405 124.921 89.1115 128.694C88.3777 133.096 86.5825 137.013 83.7258 140.445C80.8692 143.877 77.1608 146.576 72.6006 148.541C68.0405 150.506 62.8513 151.488 57.0332 151.488H19.1367ZM43.9817 134.039H54.2028C57.8194 134.039 60.663 133.344 62.7334 131.956C64.83 130.567 66.0749 128.537 66.468 125.864C66.7825 123.978 66.6253 122.38 65.9963 121.069C65.3673 119.759 64.3059 118.764 62.812 118.083C61.3182 117.401 59.4443 117.061 57.1904 117.061H46.6549L43.9817 134.039ZM49.0136 103.541H57.9767C59.8636 103.541 61.5933 103.24 63.1658 102.637C64.7383 102.035 66.0356 101.157 67.0577 100.004C68.0798 98.8513 68.7219 97.4627 68.984 95.8382C69.3771 93.323 68.7743 91.4103 67.1756 90.1003C65.6031 88.7902 63.4803 88.1352 60.8071 88.1352H51.5296L49.0136 103.541Z" fill="black"/>
<path d="M101.259 88.6068L104.247 71H174.221L171.234 88.6068H147.018L136.639 151.488H115.097L125.475 88.6068H101.259Z" fill="black"/>
<path fill-rule="evenodd" clip-rule="evenodd" d="M169.081 151.488L182.447 71H217.199C223.174 71 228.219 72.0873 232.334 74.262C236.449 76.4366 239.41 79.5676 241.218 83.6549C243.027 87.7422 243.459 92.6417 242.516 98.3535C241.572 104.118 239.489 108.978 236.265 112.934C233.28 116.604 229.529 119.451 225.013 121.476L236.383 151.488H212.639L202.914 124.921H195.379L190.939 151.488H169.081ZM212.639 107C210.699 107.629 208.445 107.943 205.877 107.943H198.216L201.474 88.4496H209.179C211.695 88.4496 213.805 88.8033 215.508 89.5108C217.212 90.192 218.431 91.2662 219.164 92.7334C219.898 94.1745 220.082 96.0478 219.715 98.3535C219.348 100.659 218.562 102.519 217.356 103.934C216.151 105.323 214.578 106.345 212.639 107Z" fill="black"/>
</svg>

<svg xmlns="http://www.w3.org/2000/svg" fill="none" viewBox="0 0 256 256"><path fill="#000" d="M18.419 159.111h9.77l4.94 19.749h.383l11.635-19.749h9.77l-5.42 31.898h-7.681l3.33-19.594h-.27L33.75 190.806h-4.893l-4.526-19.5h-.271l-3.379 19.703H13zm43.06 31.898h-8.48l16.433-31.898h10.503l5.594 31.898H77.05l-3.586-23.861h-.255zm1.02-12.554h17.723l-1.02 5.856H61.479zm26.544 12.554 5.419-31.898h13.483q3.666 0 6.12 1.293 2.455 1.278 3.491 3.676 1.035 2.383.478 5.653-.542 3.303-2.423 5.623-1.864 2.305-4.813 3.52-2.932 1.215-6.662 1.215H95.61l1.051-6.075h7.061q1.769 0 3.06-.451 1.291-.468 2.056-1.402.781-.95 1.036-2.43.239-1.479-.223-2.445-.447-.981-1.578-1.464-1.116-.498-2.869-.498h-3.889l-4.383 25.683zm20.847-14.578 5.658 14.578h-8.607l-5.482-14.578zm9.22 14.578 5.419-31.898h7.889l-2.279 13.488h.43l13.069-13.488h9.292l-13.946 14.236 8.734 17.662h-9.435l-5.929-12.538-3.889 3.94-1.466 8.598zm31.513 0 5.419-31.898h22.759l-1.084 6.261h-14.87l-1.084 6.542h13.707l-1.084 6.277H160.68l-1.084 6.556h14.87l-1.084 6.262zm30.967-25.637 1.084-6.261h27.588l-1.084 6.261h-9.897l-4.335 25.637h-7.778l4.335-25.637zm48.511 3.365q.127-1.76-.957-2.726-1.068-.966-3.379-.966-1.53 0-2.613.39-1.084.373-1.706 1.059a3.04 3.04 0 0 0-.781 1.557q-.143.702.08 1.246.223.546.781.966.573.42 1.418.732.861.312 1.929.545l2.677.623q2.328.515 4.033 1.371 1.72.84 2.789 2.04a6.4 6.4 0 0 1 1.466 2.726q.399 1.541.064 3.457-.51 3.021-2.439 5.187-1.912 2.165-5.004 3.317-3.076 1.153-7.156 1.153t-6.933-1.2q-2.837-1.215-4.112-3.66t-.685-6.167h7.538q-.175 1.541.399 2.569.589 1.029 1.817 1.558t2.964.529q1.594 0 2.789-.42 1.211-.42 1.929-1.168.733-.749.892-1.713.159-.888-.303-1.542-.445-.654-1.53-1.137-1.068-.483-2.805-.872l-3.267-.779q-4.048-.966-6.136-3.084-2.072-2.118-1.466-5.747a10.2 10.2 0 0 1 2.518-5.202q2.024-2.227 5.116-3.458 3.108-1.245 6.837-1.246 3.793 0 6.375 1.262 2.598 1.246 3.746 3.52 1.163 2.257.669 5.28zM19.137 151.488 32.503 71h34.909q9.198 0 15.056 2.476 5.897 2.476 8.334 6.996 2.477 4.52 1.454 10.65a19.76 19.76 0 0 1-3.38 8.057q-2.556 3.615-6.487 6.131-3.891 2.475-8.688 3.419l-.157.786q5.19.157 9.042 2.594 3.852 2.397 5.66 6.681 1.81 4.245.866 9.904-1.101 6.603-5.386 11.751T72.6 148.541q-6.84 2.947-15.568 2.947zm24.845-17.449h10.22q5.426 0 8.531-2.083 3.145-2.083 3.735-6.092.471-2.829-.472-4.795t-3.184-2.986q-2.241-1.023-5.622-1.022H46.655zm5.032-30.498h8.963q2.83 0 5.189-.904 2.358-.903 3.892-2.633t1.926-4.166q.59-3.773-1.808-5.738-2.36-1.965-6.369-1.965H51.53zm52.245-14.934L104.247 71h69.974l-2.987 17.607h-24.216l-10.379 62.881h-21.542l10.378-62.881z"/><path fill="#000" fill-rule="evenodd" d="M169.081 151.488 182.447 71h34.752q8.963 0 15.135 3.262t8.884 9.393 1.298 14.698q-1.415 8.647-6.251 14.581-4.478 5.505-11.252 8.542l11.37 30.012h-23.744l-9.725-26.567h-7.535l-4.44 26.567zM212.639 107q-2.91.943-6.762.943h-7.661l3.258-19.493h7.705q3.774 0 6.329 1.06 2.556 1.023 3.656 3.223 1.101 2.162.551 5.62t-2.359 5.581q-1.808 2.083-4.717 3.066" clip-rule="evenodd"/></svg>
